X:1000
T:Fleur de Mandragore
M:C|
L:1/8
C:Michel Bordeleau
R:reel
D:Lnasa: Lnasa
Z:Devin McCabe
K:A
E2AE GABc | A^de=d cAAF | E2AE GAB2 | ~B3d cAAF |
!E2AE GABc | A^de=d cAAF | E2AE GAB2 |1 ~B3d cAAF :|2 M:6/4 ~B3d cAAB AB
ce |
!M:C| L:1/8:~a3a a2ga | bAaA gAeA | dfed cABc | defa agfe |
!~a3a a2ga | bAaA gAeA | dfed cABc | dcBc BAA2 :|
